X:072 
T:Gorman's Reel 
B:CRE3.188 (Ril Ui Ghormain)
F:file ID: cre.3/072gorman
R:reel
L:1/8
Q:180
M:C
K:Em
GA |:BEFE B2ed|B2AF FEFA|BEFE B2ed |1 B2AF AEE2:|\
[2 B2AF FAB^c||
d2fd adfd|d2fd ^cee2|d2fd adfd|B2AF FEEA|
d2fd adfd|d2fd Beef|g2ge f3e|dBAF Beed||
 
%%%

